!!!COM: Haydn, Franz Joseph
!!!OPR: Symphony in B-flat Major
!!!OTL: Affettuoso 
!!!OMV: 2
!!!SCT: H I:85
!!!SCA: Thematisch-bibliographisches Werkevererzeichnis (A. van Hoboken)
!!!YOR: RISM H 3039, Choron Edition
!!!EED: Frances Bennion
!!!ENC: Frances Bennion
!!!CDT: 1732/3/31/-1809/5/31/
!!!OCY: Österreich
!!!YEC: Copyright (c) 1994, 2000 Center for Computer Assisted Research in the Humanities
!!!YEM: Rights to all derivative editions reserved.
!!!YEM: Refer to licensing agreement for further details.
!!!YEN: United States of America
**kern	**kern	**kern	**kern	**kern	**kern	**kern	**kern	**kern	**kern	**kern
*k[]	*k[b-e-a-]	*k[b-e-a-]	*k[]	*k[b-e-a-]	*k[b-e-a-]	*k[b-e-a-]	*k[b-e-a-]	*k[b-e-a-]	*k[b-e-a-]	*k[b-e-a-]
*C:	*C:	*C:	*C:	*C:	*C:	*C:	*C:	*C:	*C:	*C:
*clefF	*clefF4	*clefF4	*clefF	*clefF	*clefF	*clefF	*clefF4	*clefF	*clefF	*clefC3
*M2/2	*M2/2	*M2/2	*M2/2	*M2/2	*M2/2	*M2/2	*M2/2	*M2/2	*M2/2	*M2/2
*tb32	*tb32	*tb32	*tb32	*tb32	*tb32	*tb32	*tb32	*tb32	*tb32	*tb32
=0-	=0-	=0-	=0-	=0-	=0-	=0-	=0-	=0-	=0-	=0-
2r	2r	2r	2r	2r	2r	2r	2r	2r	2r	2r
2r	2r	2r	2r	2r	2r	2r	2r	4g	4B-	2r
.	.	.	.	.	.	.	.	4g	4B-	.
=1	=1	=1	=1	=1	=1	=1	=1	=1	=1	=1
1r	4EE-	4EE-	1r	1r	1r	1r	1r	2g	2B-	4E-
.	4E-	4E-	.	.	.	.	.	.	.	4E-
.	4E-	4E-	.	.	.	.	.	8f	2A-	4E-
.	.	.	.	.	.	.	.	8e-	.	.
.	4E-	4E-	.	.	.	.	.	8f	.	4E-
.	.	.	.	.	.	.	.	8g	.	.
=2	=2	=2	=2	=2	=2	=2	=2	=2	=2	=2
1r	4E-	4E-	1r	1r	1r	1r	1r	4e-	4G	4E-
.	2.r	2.r	.	.	.	.	.	4f	4d	2.r
.	.	.	.	.	.	.	.	4g	4e-	.
.	.	.	.	.	.	.	.	4a-	4f	.
=3	=3	=3	=3	=3	=3	=3	=3	=3	=3	=3
1r	4E-	4E-	1r	1r	1r	1r	1r	2b-	2g	4E-
.	4E-	4E-	.	.	.	.	.	.	.	4e-
.	4E-	4E-	.	.	.	.	.	8cc	2a-	4e-
.	.	.	.	.	.	.	.	8dd	.	.
.	4E-	4E-	.	.	.	.	.	8ee-	.	4e-
.	.	.	.	.	.	.	.	8cc	.	.
=4	=4	=4	=4	=4	=4	=4	=4	=4	=4	=4
1r	4E-	4E-	1r	1r	1r	1r	1r	4b-	4g	4e-
.	4EE-	4EE-	.	.	.	.	.	4r	4r	4E-
.	2r	2r	.	.	.	.	.	4g	4B-	2r
.	.	.	.	.	.	.	.	4g	4B-	.
=5	=5	=5	=5	=5	=5	=5	=5	=5	=5	=5
1r	4E-	4E-	1r	1r	1r	1r	1r	2g	2B-	2E-
.	4E-	4E-	.	.	.	.	.	.	.	.
.	4D	4D	.	.	.	.	.	8f	2B	2G
.	.	.	.	.	.	.	.	8e-	.	.
.	4D	4D	.	.	.	.	.	8f	.	.
.	.	.	.	.	.	.	.	8g	.	.
=6	=6	=6	=6	=6	=6	=6	=6	=6	=6	=6
1r	4C	4C	1r	1r	1r	1r	1r	4e-	4c	4c
.	2r	2r	.	.	.	.	.	4f	4d	2r
.	.	.	.	.	.	.	.	4g	4e-	.
.	4C	4C	.	.	.	.	.	4a	4e-	4c
=7	=7	=7	=7	=7	=7	=7	=7	=7	=7	=7
1r	4BB-	4BB-	1r	1r	1r	1r	1r	2b-	4d	4B-
.	4BB-	4BB-	.	.	.	.	.	.	4d	4B-
.	4FF	4FF	.	.	.	.	.	8cc	4A	4F
.	.	.	.	.	.	.	.	8ee-	.	.
.	4FF	4FF	.	.	.	.	.	8cc	4A	4F
.	.	.	.	.	.	.	.	8a	.	.
=8	=8	=8	=8	=8	=8	=8	=8	=8	=8	=8
2r	4BB-	4BB-	2r	2r	2r	2r	2r	4b-	4B-	4B-
.	4B-	4B-	.	.	.	.	.	4r	4r	4r
2r	2r	2r	2r	2r	2r	2r	2r	4ee-	8g	2r
.	.	.	.	.	.	.	.	.	8b-	.
.	.	.	.	.	.	.	.	4ee-	8g	.
.	.	.	.	.	.	.	.	.	8b-	.
=9	=9	=9	=9	=9	=9	=9	=9	=9	=9	=9
1r	1r	1r	1r	1r	1r	1r	1r	2dd	8a-	1r
.	.	.	.	.	.	.	.	.	8b-	.
.	.	.	.	.	.	.	.	.	8a-	.
.	.	.	.	.	.	.	.	.	8b-	.
.	.	.	.	.	.	.	.	8ee-	8g	.
.	.	.	.	.	.	.	.	8dd	8b-	.
.	.	.	.	.	.	.	.	8ee-	8g	.
.	.	.	.	.	.	.	.	8gg	8b-	.
=10	=10	=10	=10	=10	=10	=10	=10	=10	=10	=10
1r	1r	1r	1r	1r	1r	1r	1r	2b-	8a-	1r
.	.	.	.	.	.	.	.	.	8b-	.
.	.	.	.	.	.	.	.	.	8a-	.
.	.	.	.	.	.	.	.	.	8b-	.
.	.	.	.	.	.	.	.	4ee-	8g	.
.	.	.	.	.	.	.	.	.	8b-	.
.	.	.	.	.	.	.	.	4ee-	8g	.
.	.	.	.	.	.	.	.	.	8b-	.
=11	=11	=11	=11	=11	=11	=11	=11	=11	=11	=11
1r	1r	1r	1r	1r	1r	1r	1r	2dd	8a-	1r
.	.	.	.	.	.	.	.	.	8b-	.
.	.	.	.	.	.	.	.	.	8a-	.
.	.	.	.	.	.	.	.	.	8b-	.
.	.	.	.	.	.	.	.	8ee-	8g	.
.	.	.	.	.	.	.	.	8dd	8b-	.
.	.	.	.	.	.	.	.	8ee-	8g	.
.	.	.	.	.	.	.	.	8gg	8b-	.
=12	=12	=12	=12	=12	=12	=12	=12	=12	=12	=12
1r	1r	1r	1r	1r	1r	1r	1r	2a-	8d	1r
.	.	.	.	.	.	.	.	.	8b-	.
.	.	.	.	.	.	.	.	.	8d	.
.	.	.	.	.	.	.	.	.	8b-	.
.	.	.	.	.	.	.	.	4g	8e-	.
.	.	.	.	.	.	.	.	.	8b-	.
.	.	.	.	.	.	.	.	4g	8e-	.
.	.	.	.	.	.	.	.	.	8b-	.
=13	=13	=13	=13	=13	=13	=13	=13	=13	=13	=13
1r	1r	1r	1r	1r	1r	1r	1r	2f	8A-	1r
.	.	.	.	.	.	.	.	.	8c	.
.	.	.	.	.	.	.	.	.	8A-	.
.	.	.	.	.	.	.	.	.	8c	.
.	.	.	.	.	.	.	.	8f	8A	.
.	.	.	.	.	.	.	.	8e-	8c	.
.	.	.	.	.	.	.	.	8d	8A	.
.	.	.	.	.	.	.	.	8c	8c	.
=14	=14	=14	=14	=14	=14	=14	=14	=14	=14	=14
1r	2r	2r	1r	1r	1r	1r	1r	4B-	4B-	2r
.	.	.	.	.	.	.	.	4r	4b-	.
.	4E-	4E-	.	.	.	.	.	4g	4B-	4E-
.	4E-	4E-	.	.	.	.	.	4g	4B-	4E-
=15	=15	=15	=15	=15	=15	=15	=15	=15	=15	=15
1r	4EE-	4EE-	1r	1r	1r	1r	1r	2g	2B-	4E-
.	4E-	4E-	.	.	.	.	.	.	.	4E-
.	4E-	4E-	.	.	.	.	.	8f	2A-	4E-
.	.	.	.	.	.	.	.	8e-	.	.
.	4E-	4E-	.	.	.	.	.	8f	.	4E-
.	.	.	.	.	.	.	.	8g	.	.
=16	=16	=16	=16	=16	=16	=16	=16	=16	=16	=16
1r	4E-	4E-	1r	1r	1r	1r	1r	4e-	4G	4E-
.	2.r	2.r	.	.	.	.	.	4f	4d	2.r
.	.	.	.	.	.	.	.	4g	4e-	.
.	.	.	.	.	.	.	.	4a-	4f	.
=17	=17	=17	=17	=17	=17	=17	=17	=17	=17	=17
1r	4EE-	4EE-	1r	1r	1r	1r	1r	2b-	2g	4E-
.	4E-	4E-	.	.	.	.	.	.	.	4e-
.	4E-	4E-	.	.	.	.	.	8cc	2a-	4e-
.	.	.	.	.	.	.	.	8dd	.	.
.	4E-	4E-	.	.	.	.	.	8ee-	.	4e-
.	.	.	.	.	.	.	.	8cc	.	.
=18	=18	=18	=18	=18	=18	=18	=18	=18	=18	=18
1r	4E-	4E-	1r	1r	1r	1r	1r	4b-	4g	4e-
.	4r	4r	.	.	.	.	.	4r	4r	4r
.	4F	4F	.	.	.	.	.	4a	4e-	4c
.	4F	4F	.	.	.	.	.	4a	4e-	4c
=19	=19	=19	=19	=19	=19	=19	=19	=19	=19	=19
1r	4F	4F	1r	1r	1r	1r	1r	4a	4e-	4c
.	4r	4r	.	.	.	.	.	4r	4r	4r
.	4D	4D	.	.	.	.	.	4a-	4B-	4f
.	4D	4D	.	.	.	.	.	4a-	4B-	4f
=20	=20	=20	=20	=20	=20	=20	=20	=20	=20	=20
1r	4D	4D	1r	1r	1r	1r	1r	2a-	1B-	2f
.	4D	4D	.	.	.	.	.	.	.	.
.	4E-	4E-	.	.	.	.	.	8g	.	2B-
.	.	.	.	.	.	.	.	8f	.	.
.	4E-	4E-	.	.	.	.	.	8g	.	.
.	.	.	.	.	.	.	.	8e-	.	.
=21	=21	=21	=21	=21	=21	=21	=21	=21	=21	=21
1r	4AA-	4AA-	1r	1r	1r	1r	1r	4f	4c	4A-
.	4AA-	4AA-	.	.	.	.	.	4f	4c	4A-
.	4AA-	4AA-	.	.	.	.	.	8f	4c	4A-
.	.	.	.	.	.	.	.	8a-	.	.
.	4BB-	4BB-	.	.	.	.	.	8f	4A-	4B-
.	.	.	.	.	.	.	.	8d	.	.
=22	=22	=22	=22	=22	=22	=22	=22	=22	=22	=22
2r	4EE-	4EE-	2r	2r	2r	2r	2r	4e-	4G	4E-
.	4E-	4E-	.	.	.	.	.	4r	4r	4e-
2r	2r	2r	2r	2r	2r	4gg	2r	4g	4B-	2r
.	.	.	.	.	.	4gg	.	4g	4B-	.
=23	=23	=23	=23	=23	=23	=23	=23	=23	=23	=23
1r	4EE-	4EE-	1r	1r	1r	2gg	1r	2g	2B-	2B-
.	4E-	4E-	.	.	.	.	.	.	.	.
.	4E-	4E-	.	.	.	8ff	.	8f	2A-	2d
.	.	.	.	.	.	8ee-	.	8e-	.	.
.	4E-	4E-	.	.	.	8ff	.	8f	.	.
.	.	.	.	.	.	8gg	.	8g	.	.
=24	=24	=24	=24	=24	=24	=24	=24	=24	=24	=24
1r	4E-	4E-	1r	1r	1r	4ee-	1r	4e-	4G	4e-
.	2.r	2.r	.	.	.	4ff	.	4f	4d	2.r
.	.	.	.	.	.	4gg	.	4g	4e-	.
.	.	.	.	.	.	4aa-	.	4a-	4f	.
=25	=25	=25	=25	=25	=25	=25	=25	=25	=25	=25
1r	4EE-	4EE-	1r	1r	1r	2bb-	1r	2b-	2g	4E-
.	4E-	4E-	.	.	.	.	.	.	.	4e-
.	4E-	4E-	.	.	.	8ccc	.	8cc	2a-	4e-
.	.	.	.	.	.	8ddd	.	8dd	.	.
.	4E-	4E-	.	.	.	8eee-	.	8ee-	.	4e-
.	.	.	.	.	.	8ccc	.	8cc	.	.
=26	=26	=26	=26	=26	=26	=26	=26	=26	=26	=26
1r	4E-	4E-	1r	2r	2r	4bb-	1r	4b-	2g	4e-
.	4EE-	4EE-	.	.	.	4r	.	4r	.	4E-
.	2r	2r	.	4gg	4g	4gg	.	4gg	4gg	2r
.	.	.	.	4gg	4g	4gg	.	4gg	4gg	.
=27	=27	=27	=27	=27	=27	=27	=27	=27	=27	=27
2ee	4E- 4c	4E- 4c	2cc	2gg	2cc	2gg	2E-	4gg 4e- 4cc	4gg 4cc 4e-	2g
.	4E- 4c	4E- 4c	.	.	.	.	.	16ff	16ff	.
.	.	.	.	.	.	.	.	16ee-	16ee-	.
.	.	.	.	.	.	.	.	16dd	16dd	.
.	.	.	.	.	.	.	.	16cc	16cc	.
2dd	4D 4B	4D 4B	2dd	2aa-	2b	2ff	2F	8b	8b	2b
.	.	.	.	.	.	.	.	16ff	16ff	.
.	.	.	.	.	.	.	.	16gg	16gg	.
.	4B 4D	4B 4D	.	.	.	.	.	8aa-	8aa-	.
.	.	.	.	.	.	.	.	8aa-	8aa-	.
=28	=28	=28	=28	=28	=28	=28	=28	=28	=28	=28
2ee	4c 4E-	4c 4E-	2cc	2gg	2cc	2ee-	2E-	8.gg	8.gg	2c
.	.	.	.	.	.	.	.	16ff	16ff	.
.	4E- 4c	4E- 4c	.	.	.	.	.	16ee-	16ee-	.
.	.	.	.	.	.	.	.	16dd	16dd	.
.	.	.	.	.	.	.	.	16cc	16cc	.
.	.	.	.	.	.	.	.	16b-	16b-	.
2dd	4E- 4c	4E- 4c	2cc	2aa	[2ff	2ccc	2E-	8a	8a	2e-
.	.	.	.	.	.	.	.	16ff	16ff	.
.	.	.	.	.	.	.	.	16gg	16gg	.
.	4E- 4c	4E- 4c	.	.	.	.	.	8aa	8.aa	.
.	.	.	.	.	.	.	.	8aa	.	.
.	.	.	.	.	.	.	.	.	16aa	.
=29	=29	=29	=29	=29	=29	=29	=29	=29	=29	=29
4dd	4D 4B-	4D 4B-	4g	8.bb-	4ff]	8.bb-	4D	8.bb-	8.bb-	4d
.	.	.	.	16ff	.	16ff	.	16ff	16ff	.
4ee	4E-	4E-	4cc	8.gg	8.ee-	8.gg	4E-	8.gg	8.ee-	4e-
.	.	.	.	16ee-	16cc	16ee-	.	16ee-	16cc	.
4dd	4F	4F	4dd	8.dd	8.b-	8.dd	4F	8.dd	8.b-	4f
.	.	.	.	16ff	16dd	16ff	.	16ff	16dd	.
4dd	4F	4F	4dd	8.ee-	8.cc	8.ee-	4F	8.ee-	8.cc	4f
.	.	.	.	16cc	16a	16cc	.	16cc	16a	.
=30	=30	=30	=30	=30	=30	=30	=30	=30	=30	=30
4dd	4BB-	4BB-	4g	4b-	4b-	4b-	4BB-	4b-	4b-	4B-
4r	4B-	4B-	4r	2.r	4r	4r	4B-	4r	4r	4b-
2r	8G	2r	2r	.	2r	2r	2r	4ee-	2r	2r
.	8B-	.	.	.	.	.	.	.	.	.
.	8G	.	.	.	.	.	.	4ee-	.	.
.	8B-	.	.	.	.	.	.	.	.	.
=31	=31	=31	=31	=31	=31	=31	=31	=31	=31	=31
4dd	8A-	1r	4g	1r	1r	1r	1r	2dd	4f	4B-
.	8B-	.	.	.	.	.	.	.	.	.
4dd	8A-	.	4g	.	.	.	.	.	4f	4B-
.	8B-	.	.	.	.	.	.	.	.	.
4ee	8G	.	4cc	.	.	.	.	8ee-	4g	4e-
.	8B-	.	.	.	.	.	.	8dd	.	.
4r	8G	.	4r	.	.	.	.	8ee-	4r	4r
.	8B-	.	.	.	.	.	.	8gg	.	.
=32	=32	=32	=32	=32	=32	=32	=32	=32	=32	=32
4dd	8A-	1r	4g	1r	1r	1r	1r	2b-	4f	4B-
.	8B-	.	.	.	.	.	.	.	.	.
4dd	8A-	.	4g	.	.	.	.	.	4f	4B-
.	8B-	.	.	.	.	.	.	.	.	.
4ee	8G	.	4cc	.	.	.	.	4ee-	4g	4e-
.	8B-	.	.	.	.	.	.	.	.	.
4r	8G	.	4r	.	.	.	.	4ee-	4r	4r
.	8B-	.	.	.	.	.	.	.	.	.
=33	=33	=33	=33	=33	=33	=33	=33	=33	=33	=33
4dd	8A-	1r	4g	1r	1r	1r	1r	2dd	4f	4B-
.	8B-	.	.	.	.	.	.	.	.	.
4dd	8A-	.	4g	.	.	.	.	.	4f	4B-
.	8B-	.	.	.	.	.	.	.	.	.
4ee	8G	.	4cc	.	.	.	.	8ee-	4g	4e-
.	8B-	.	.	.	.	.	.	8dd	.	.
4r	8G	.	4r	.	.	.	.	8ee-	4r	4r
.	8B-	.	.	.	.	.	.	8gg	.	.
=34	=34	=34	=34	=34	=34	=34	=34	=34	=34	=34
4dd	8D	1r	4g	1r	1r	1r	1r	2a-	4f	4B-
.	8B-	.	.	.	.	.	.	.	.	.
4dd	8D	.	4g	.	.	.	.	.	4f	4B-
.	8B-	.	.	.	.	.	.	.	.	.
4ee	8E-	.	4cc	.	.	.	.	4g	4g	4e-
.	8B-	.	.	.	.	.	.	.	.	.
4r	8E-	.	4r	.	.	.	.	4g	4g	4e-
.	8B-	.	.	.	.	.	.	.	.	.
=35	=35	=35	=35	=35	=35	=35	=35	=35	=35	=35
1r	8AA-	1r	1r	1r	1r	1r	1r	2f	4f	4A-
.	8C	.	.	.	.	.	.	.	.	.
.	8AA-	.	.	.	.	.	.	.	4f	4A-
.	8C	.	.	.	.	.	.	.	.	.
.	8AA	.	.	.	.	.	.	8f	8f	4A
.	8C	.	.	.	.	.	.	8e-	8e-	.
.	8AA	.	.	.	.	.	.	8d	8d	4A
.	8C	.	.	.	.	.	.	8c	8c	.
=36	=36	=36	=36	=36	=36	=36	=36	=36	=36	=36
2r	4BB-	2r	2r	2r	2r	2r	2r	4B-	4B-	4B-
.	4B-	.	.	.	.	.	.	4r	4r	4r
4ee	4E-	4E-	4g	4gg	4b-	4gg	4E-	4gg 4b-	4b- 4g	4e-
4ee	4E-	4E-	4g	4gg	4b-	4gg	4E-	4gg 4b-	4g 4b-	4e-
=37	=37	=37	=37	=37	=37	=37	=37	=37	=37	=37
2ee	4E-	4E-	2g	2gg	2b-	2gg	[1E-	2gg 2b-	2g 2b-	2B-
.	4E-	4E-	.	.	.	.	.	.	.	.
2dd	4E-	4E-	2B	8ff	8a-	8ff	.	8ff	8a-	2d
.	.	.	.	8ee-	8g	8ee-	.	8ee-	8g	.
.	4E-	4E-	.	8ff	8a-	8ff	.	8ff	8a-	.
.	.	.	.	8gg	8b-	8gg	.	8gg	8b-	.
=38	=38	=38	=38	=38	=38	=38	=38	=38	=38	=38
4cc	4E-	4E-	4c	4ee-	4g	8.ee-	1E-]	8.ee-	8.g	4e-
.	.	.	.	.	.	16b-	.	16b-	16b-	.
4dd	4E-	4E-	4g	4ff	4dd	8.ff	.	8.ff	8.dd	4e-
.	.	.	.	.	.	16b-	.	16b-	16b-	.
4ee	4E-	4E-	4cc	4gg	4ee-	8.gg	.	8.gg	8.ee-	4e-
.	.	.	.	.	.	16b-	.	16b-	16b-	.
4ff	4E-	4E-	4dd	4aa-	4ff	8.aa-	.	8.aa-	8.ff	4e-
.	.	.	.	.	.	16b-	.	16b-	16b-	.
=39	=39	=39	=39	=39	=39	=39	=39	=39	=39	=39
4gg	4E-	4E-	4ee	2bb-	2gg	8bb-	[1e-	8bb-	8gg	4e-
.	.	.	.	.	.	16gg	.	16gg	16ee-	.
.	.	.	.	.	.	16aa-	.	16aa-	16ff	.
4r	4r	4r	4r	.	.	8bb-	.	8bb-	8gg	4r
.	.	.	.	.	.	8gg	.	8gg	8ee-	.
4cc	4E-	4E-	4cc	2ccc	2aa-	8ccc	.	8ccc	8aa-	4e-
.	.	.	.	.	.	16ccc	.	16ccc	16aa-	.
.	.	.	.	.	.	16ddd	.	16ddd	16bb-	.
4r	4r	4r	4r	.	.	8eee-	.	8eee-	8ccc	4r
.	.	.	.	.	.	8ccc	.	8ccc	8aa-	.
=40	=40	=40	=40	=40	=40	=40	=40	=40	=40	=40
4cc	4E-	4E-	4cc	4bb-	4gg	4bb-	4e-]	4bb-	4gg	4e-
2.r	4r	4r	2.r	2.r	2.r	2.r	2.r	4r	4r	4r
.	4F	4F	.	.	.	.	.	4aa	4ee-	4c
.	4F	4F	.	.	.	.	.	4aa	4ee-	4c
=41	=41	=41	=41	=41	=41	=41	=41	=41	=41	=41
2r	4F	4F	2r	2r	2r	2r	2r	4aa	4ee-	4c
.	4r	4r	.	.	.	.	.	4r	4r	4r
4dd	4D	4D	4g	4aa-	4ff	4aa-	4B-	4aa- 4b- 4d	4d 4ff 4b-	4B-
4dd	4D	4D	4g	4aa-	4ff	4aa-	4B-	4aa- 4b- 4d	4d 4ff 4b-	4B-
=42	=42	=42	=42	=42	=42	=42	=42	=42	=42	=42
2dd	4D	4D	2g	2aa-	2ff	2aa-	1B-	8.d 8.aa- 8.b-	8.b- 8.ff 8.d	1B-
.	.	.	.	.	.	.	.	32ff	32ff	.
.	.	.	.	.	.	.	.	32gg	32gg	.
.	4D	4D	.	.	.	.	.	8.aa-	8.aa-	.
.	.	.	.	.	.	.	.	16ff	16ff	.
2ee	4E-	4E-	2cc	2gg	2b-	2gg	.	8.gg	8.gg	.
.	.	.	.	.	.	.	.	16ee-	16ee-	.
.	4E-	4E-	.	.	.	.	.	8.b-	8.b-	.
.	.	.	.	.	.	.	.	16g	16g	.
=43	=43	=43	=43	=43	=43	=43	=43	=43	=43	=43
2ff	4AA-	4AA-	2dd	8.ff	8.cc	8.ff	4A-	8.f	8.f	4c
.	.	.	.	16ccc	16aa-	16ccc	.	16ccc	16aa-	.
.	4AA-	4AA-	.	8.bb-	8.gg	8.bb-	4A-	8.bb-	8.gg	4c
.	.	.	.	16aa-	16ff	16aa-	.	16aa-	16dd	.
4ee	4BB-	4BB-	4cc	4gg	4ee-	4gg	4B-	8.gg	8.ee-	4B-
.	.	.	.	.	.	.	.	16bb-	16g	.
4dd	4BB-	4BB-	4g	4ff	4dd	4ff	4D	8.dd	8.a-	4B-
.	.	.	.	.	.	.	.	16ff	16d	.
=44	=44	=44	=44	=44	=44	=44	=44	=44	=44	=44
4cc	4EE-	4EE-	4e	4ee-	4ee-	4ee-	4E-	4ee-	4e-	4E-
4r	4E-	4E-	4r	4r	4r	4r	4r	2.r	4r	4e-
2r	2r	2r	2r	2r	2r	2r	2r	.	4g-	4B-
.	.	.	.	.	.	.	.	.	4g-	4B-
=45	=45	=45	=45	=45	=45	=45	=45	=45	=45	=45
1r	4EE-	4EE-	1r	1r	1r	1r	1r	2b-	2g-	2B-
.	4E-	4E-	.	.	.	.	.	.	.	.
.	4E-	4E-	.	.	.	.	.	2dd	8f	2A-
.	.	.	.	.	.	.	.	.	8e-	.
.	4E-	4E-	.	.	.	.	.	.	8f	.
.	.	.	.	.	.	.	.	.	8g-	.
=46	=46	=46	=46	=46	=46	=46	=46	=46	=46	=46
1r	4E-	4E-	1r	1r	1r	1r	1r	2.ee-	4e-	4G-
.	2.r	2.r	.	.	.	.	.	.	4f	4A-
.	.	.	.	.	.	.	.	.	4g-	4B-
.	.	.	.	.	.	.	.	4ff	4a-	4A-
=47	=47	=47	=47	=47	=47	=47	=47	=47	=47	=47
1r	4EE-	4EE-	1r	1r	1r	1r	1r	2gg-	2b-	4G-
.	4E-	4E-	.	.	.	.	.	.	.	2.r
.	4E-	4E-	.	.	.	.	.	8ff	8a-	.
.	.	.	.	.	.	.	.	8ee-	8g-	.
.	4E-	4E-	.	.	.	.	.	8ff	8a-	.
.	.	.	.	.	.	.	.	8gg-	8b-	.
=48	=48	=48	=48	=48	=48	=48	=48	=48	=48	=48
1r	1E-	1E-	1r	1r	1r	1r	1r	4ee-	4g-	2.r
.	.	.	.	.	.	.	.	4ff	4a-	.
.	.	.	.	.	.	.	.	4gg-	4b-	.
.	.	.	.	.	.	.	.	4gg	4dd-	4B-
=49	=49	=49	=49	=49	=49	=49	=49	=49	=49	=49
1r	4AA-	4AA-	1r	1r	1r	1r	1r	2aa-	1cc-	1A-
.	4AA-	4AA-	.	.	.	.	.	.	.	.
.	4D-	4D-	.	.	.	.	.	4ff	.	.
.	4D-	4D-	.	.	.	.	.	8ee-	.	.
.	.	.	.	.	.	.	.	8ff	.	.
=50	=50	=50	=50	=50	=50	=50	=50	=50	=50	=50
1r	4GG-	4GG-	1r	1r	1r	1r	1r	2gg-	4b-	4G-
.	4GG-	4GG-	.	.	.	.	.	.	4g-	4G-
.	4BB-	4BB-	.	.	.	.	.	4dd-	4g-	4B-
.	4BB-	4BB-	.	.	.	.	.	8b	4g-	4B-
.	.	.	.	.	.	.	.	8b-	.	.
=51	=51	=51	=51	=51	=51	=51	=51	=51	=51	=51
1r	4C-	4C-	1r	1r	1r	1r	1r	2a-	2g-	4e-
.	4C-	4C-	.	.	.	.	.	.	.	4e-
.	4D-	4D-	.	.	.	.	.	8a-	2f	4d-
.	.	.	.	.	.	.	.	8g-	.	.
.	4D-	4D-	.	.	.	.	.	8a-	.	4d-
.	.	.	.	.	.	.	.	8b-	.	.
=52	=52	=52	=52	=52	=52	=52	=52	=52	=52	=52
2r	4GG-	4GG-	2r	2r	2r	2r	2r	4g-	4g-	4B-
.	4r	4r	.	.	.	.	.	4r	4r	4r
2r	2r	2r	2r	2r	2r	2r	2r	4gg-	8B-	2r
.	.	.	.	.	.	.	.	.	8d-	.
.	.	.	.	.	.	.	.	4gg-	8B-	.
.	.	.	.	.	.	.	.	.	8d-	.
=53	=53	=53	=53	=53	=53	=53	=53	=53	=53	=53
1r	1r	1r	1r	1r	1r	1r	1r	2ff	8c-	1r
.	.	.	.	.	.	.	.	.	8d-	.
.	.	.	.	.	.	.	.	.	8c-	.
.	.	.	.	.	.	.	.	.	8d-	.
.	.	.	.	.	.	.	.	8gg-	8B-	.
.	.	.	.	.	.	.	.	8ff	8d-	.
.	.	.	.	.	.	.	.	8gg-	8B-	.
.	.	.	.	.	.	.	.	8bb-	8d-	.
=54	=54	=54	=54	=54	=54	=54	=54	=54	=54	=54
1r	1r	1r	1r	1r	1r	1r	1r	2dd-	8c-	1r
.	.	.	.	.	.	.	.	.	8d-	.
.	.	.	.	.	.	.	.	.	8c-	.
.	.	.	.	.	.	.	.	.	8d-	.
.	.	.	.	.	.	.	.	4gg-	8B-	.
.	.	.	.	.	.	.	.	.	8d-	.
.	.	.	.	.	.	.	.	4gg-	8B-	.
.	.	.	.	.	.	.	.	.	8d-	.
=55	=55	=55	=55	=55	=55	=55	=55	=55	=55	=55
1r	1r	1r	1r	1r	1r	1r	1r	2ff	8c-	1r
.	.	.	.	.	.	.	.	.	8d-	.
.	.	.	.	.	.	.	.	.	8c-	.
.	.	.	.	.	.	.	.	.	8d-	.
.	.	.	.	.	.	.	.	8gg-	8B-	.
.	.	.	.	.	.	.	.	8ff	8d-	.
.	.	.	.	.	.	.	.	8gg-	8B-	.
.	.	.	.	.	.	.	.	8bb-	8d-	.
=56	=56	=56	=56	=56	=56	=56	=56	=56	=56	=56
1r	1r	1r	1r	1r	1r	1r	1r	2ee-	8c-	1r
.	.	.	.	.	.	.	.	.	8e-	.
.	.	.	.	.	.	.	.	.	8c-	.
.	.	.	.	.	.	.	.	.	8e-	.
.	.	.	.	.	.	.	.	8ff	8A-	.
.	.	.	.	.	.	.	.	8ee-	8c-	.
.	.	.	.	.	.	.	.	8ff	8A-	.
.	.	.	.	.	.	.	.	8aa-	8c-	.
=57	=57	=57	=57	=57	=57	=57	=57	=57	=57	=57
1r	1r	1r	1r	1r	1r	1r	1r	4ee-	2B-	1r
.	.	.	.	.	.	.	.	4dd	.	.
.	.	.	.	.	.	.	.	4gg-	4b-	.
.	.	.	.	.	.	.	.	4gg-	4b-	.
=58	=58	=58	=58	=58	=58	=58	=58	=58	=58	=58
1r	4EE-	4EE-	1r	1r	1r	1r	1r	2gg-	2b-	4E-
.	4E-	4E-	.	.	.	.	.	.	.	4e-
.	4E-	4E-	.	.	.	.	.	8ff	8a-	4e-
.	.	.	.	.	.	.	.	8ee-	8g-	.
.	4E-	4E-	.	.	.	.	.	8ff	8a-	4e-
.	.	.	.	.	.	.	.	8gg-	8b-	.
=59	=59	=59	=59	=59	=59	=59	=59	=59	=59	=59
1r	4E-	4E-	1r	1r	1r	1r	1r	4ee-	4g-	4e-
.	2.r	2.r	.	.	.	.	.	4ff	4d	2.r
.	.	.	.	.	.	.	.	4gg-	4e-	.
.	.	.	.	.	.	.	.	4aa-	4f	.
=60	=60	=60	=60	=60	=60	=60	=60	=60	=60	=60
1r	4EE-	4EE-	1r	1r	1r	1r	1r	2bb-	2g-	2B-
.	4E-	4E-	.	.	.	.	.	.	.	.
.	4E-	4E-	.	.	.	.	.	8aa-	8f	2d
.	.	.	.	.	.	.	.	8gg-	8e-	.
.	4E-	4E-	.	.	.	.	.	8aa-	8f	.
.	.	.	.	.	.	.	.	8bb-	8g-	.
=61	=61	=61	=61	=61	=61	=61	=61	=61	=61	=61
1r	4E-	4E-	1r	1r	1r	1r	1r	4gg-	4e-	4e-
.	4r	4r	.	.	.	.	.	4r	4r	4r
.	4A-	4A-	.	.	.	.	.	4ff	4ee-	4c-
.	4A-	4A-	.	.	.	.	.	4ff	4ee-	4c-
=62	=62	=62	=62	=62	=62	=62	=62	=62	=62	=62
1r	4A-	4A-	1r	1r	1r	1r	1r	4ff	4ee-	4c-
.	4r	4r	.	.	.	.	.	4r	4r	4r
.	4F	4F	.	.	.	.	.	4bb	4dd	4A-
.	4F	4F	.	.	.	.	.	4bb	4dd	4A-
=63	=63	=63	=63	=63	=63	=63	=63	=63	=63	=63
1r	4G-	4G-	1r	1r	1r	1r	1r	4bb-	4ee-	4G-
.	4A-	4A-	.	.	.	.	.	8aa-	4cc-	4A-
.	.	.	.	.	.	.	.	8ff	.	.
.	4B-	4B-	.	.	.	.	.	8gg-	8b-	4B-
.	.	.	.	.	.	.	.	8ee-	8g-	.
.	4BB-	4BB-	.	.	.	.	.	8ff	8a-	4B-
.	.	.	.	.	.	.	.	8dd	8f	.
=64	=64	=64	=64	=64	=64	=64	=64	=64	=64	=64
2r	4EE-	4EE-	2r	2r	2r	2r	2r	4ee-	4e-	4E-
.	4E-	4E-	.	.	.	.	.	4r	4r	4r
2r	2r	2r	2r	2r	2r	2r	2r	4g-	4B-	2r
.	.	.	.	.	.	.	.	4g-	4B-	.
=65	=65	=65	=65	=65	=65	=65	=65	=65	=65	=65
1r	4E-	4E-	1r	1r	1r	1r	1r	2g-	[1B-	2e-
.	4E-	4E-	.	.	.	.	.	.	.	.
.	4D-	4D-	.	.	.	.	.	8f	.	2d-
.	.	.	.	.	.	.	.	8e-	.	.
.	4D-	4D-	.	.	.	.	.	8f	.	.
.	.	.	.	.	.	.	.	8g-	.	.
=66	=66	=66	=66	=66	=66	=66	=66	=66	=66	=66
1r	4C-	4C-	1r	1r	1r	1r	1r	2e-	2B-]	1c-
.	4C-	4C-	.	.	.	.	.	.	.	.
.	4C-	4C-	.	.	.	.	.	4ee-	8A-	.
.	.	.	.	.	.	.	.	.	8G	.
.	4C-	4C-	.	.	.	.	.	4ee-	8A-	.
.	.	.	.	.	.	.	.	.	8B-	.
=67	=67	=67	=67	=67	=67	=67	=67	=67	=67	=67
1r	4C-	4C-	1r	1r	1r	1r	1r	2gg-	2A-	2A-
.	4C-	4C-	.	.	.	.	.	.	.	.
.	4C-	4C-	.	.	.	.	.	8ff	2A	2A
.	.	.	.	.	.	.	.	8ee-	.	.
.	4C-	4C-	.	.	.	.	.	8dd	.	.
.	.	.	.	.	.	.	.	8ee-	.	.
=68	=68	=68	=68	=68	=68	=68	=68	=68	=68	=68
1r	4BB-	4BB-	1r	1r	1r	1r	1r	4b-	4B-	4B-
.	4BB-	4BB-	.	.	.	.	.	4r	4r	4B-
.	4BB-	4BB-	.	.	.	.	.	4b-	4d	4B-
.	4r	4r	.	.	.	.	.	4b-	4d	4r
=69	=69	=69	=69	=69	=69	=69	=69	=69	=69	=69
1r	4BB-	4BB-	1r	1r	1r	1r	1r	4b	4e-	4B-
.	4BB-	4BB-	.	.	.	.	.	4r	4r	4B-
.	4BB-	4BB-	.	.	.	.	.	4a	4f	4B-
.	4r	4r	.	.	.	.	.	4a	4f	4r
=70	=70	=70	=70	=70	=70	=70	=70	=70	=70	=70
1r	4BB-	4BB-	1r	1r	1r	1r	1r	4b-	4g-	4B-
.	4BB-	4BB-	.	.	.	.	.	4r	4r	4B-
.	4BB-	4BB-	.	.	.	.	.	4g	4e	4B-
.	4r	4r	.	.	.	.	.	4g	4e	4r
=71	=71	=71	=71	=71	=71	=71	=71	=71	=71	=71
1r	4BB-	4BB-	1r	1r	1r	1r	1r	4a-	4f	4B-
.	4BB-	4BB-	.	.	.	.	.	4r	4r	4B-
.	4BB-	4BB-	.	.	.	.	.	4a-	4f	4B-
.	4r	4r	.	.	.	.	.	4a-	4f	4r
=72	=72	=72	=72	=72	=72	=72	=72	=72	=72	=72
2r	2r	2r	2r	2r	2r	2r	2r	4a-	4f	2r
.	.	.	.	.	.	.	.	4r	4r	.
2r	2r	2r	2r	2r	2r	2r	2r	4g	4B-	2r
.	.	.	.	.	.	.	.	4g	4B-	.
=73	=73	=73	=73	=73	=73	=73	=73	=73	=73	=73
1r	4EE-	4EE-	1r	1r	1r	8r	1r	2g	2B-	2B-
.	.	.	.	.	.	8g	.	.	.	.
.	4E-	4E-	.	.	.	8b-	.	.	.	.
.	.	.	.	.	.	8ee-	.	.	.	.
.	4E-	4E-	.	.	.	8dd	.	8f	2A-	2d
.	.	.	.	.	.	8ff	.	8e-	.	.
.	4E-	4E-	.	.	.	8bb-	.	8f	.	.
.	.	.	.	.	.	8dd	.	8g	.	.
=74	=74	=74	=74	=74	=74	=74	=74	=74	=74	=74
1r	4E-	4E-	1r	1r	1r	8ee-	1r	4e-	4G	4e-
.	.	.	.	.	.	8dd	.	.	.	.
.	2.r	2.r	.	.	.	8ff	.	4f	4d	2.r
.	.	.	.	.	.	8ee-	.	.	.	.
.	.	.	.	.	.	8gg	.	4g	4e-	.
.	.	.	.	.	.	8ff	.	.	.	.
.	.	.	.	.	.	8aa-	.	4a-	4f	.
.	.	.	.	.	.	8gg	.	.	.	.
=75	=75	=75	=75	=75	=75	=75	=75	=75	=75	=75
1r	4EE-	4EE-	1r	1r	1r	8bb-	1r	2b-	2g	4E-
.	.	.	.	.	.	8bb-	.	.	.	.
.	4E-	4E-	.	.	.	8gg	.	.	.	4e-
.	.	.	.	.	.	8ee-	.	.	.	.
.	4E-	4E-	.	.	.	8r	.	8cc	2a-	4e-
.	.	.	.	.	.	8eee-	.	8dd	.	.
.	4E-	4E-	.	.	.	8ccc	.	8ee-	.	4e-
.	.	.	.	.	.	8aa-	.	8cc	.	.
=76	=76	=76	=76	=76	=76	=76	=76	=76	=76	=76
1r	4E-	4E-	1r	1r	1r	8gg	1r	4b-	4g	4e-
.	.	.	.	.	.	8gg	.	.	.	.
.	2.r	2.r	.	.	.	8bb-	.	4r	4r	2.r
.	.	.	.	.	.	8gg	.	.	.	.
.	.	.	.	.	.	8ee-	.	4g	4B-	.
.	.	.	.	.	.	8gg	.	.	.	.
.	.	.	.	.	.	8b-	.	4g	4B-	.
.	.	.	.	.	.	8ee-	.	.	.	.
=77	=77	=77	=77	=77	=77	=77	=77	=77	=77	=77
1r	4E-	4E-	1r	1r	1r	8r	1r	2g	2B-	2E-
.	.	.	.	.	.	8g	.	.	.	.
.	4E-	4E-	.	.	.	8b-	.	.	.	.
.	.	.	.	.	.	8ee-	.	.	.	.
.	4D	4D	.	.	.	8dd	.	8f	2B	2G
.	.	.	.	.	.	8ff	.	8e-	.	.
.	4D	4D	.	.	.	8aa-	.	8f	.	.
.	.	.	.	.	.	8dd	.	8g	.	.
=78	=78	=78	=78	=78	=78	=78	=78	=78	=78	=78
1r	4C	4C	1r	1r	1r	8ee-	1r	4e-	4c	4c
.	.	.	.	.	.	8dd	.	.	.	.
.	2r	2r	.	.	.	8ff	.	4f	4d	2r
.	.	.	.	.	.	8ee-	.	.	.	.
.	.	.	.	.	.	8gg	.	4g	4e-	.
.	.	.	.	.	.	8ee-	.	.	.	.
.	4F	4F	.	.	.	8cc	.	4a	4e-	4f
.	.	.	.	.	.	8aa	.	.	.	.
=79	=79	=79	=79	=79	=79	=79	=79	=79	=79	=79
1r	4BB-	4BB-	1r	1r	1r	8bb-	1r	2b-	4d	4B-
.	.	.	.	.	.	8ff	.	.	.	.
.	4BB-	4BB-	.	.	.	8bb-	.	.	4d	4B-
.	.	.	.	.	.	8ddd	.	.	.	.
.	4FF	4FF	.	.	.	8ccc	.	8cc	4A	4e-
.	.	.	.	.	.	8eee-	.	8ee-	.	.
.	4FF	4FF	.	.	.	8ccc	.	8cc	4A	4e-
.	.	.	.	.	.	8aa	.	8a	.	.
=80	=80	=80	=80	=80	=80	=80	=80	=80	=80	=80
2r	4BB-	4BB-	2r	2r	2r	4bb-	2r	4b-	4B-	4d
.	4r	4r	.	.	.	4r	.	4r	4r	4r
2r	2r	2r	2r	2r	2r	4r	2r	4ee-	8g	2r
.	.	.	.	.	.	.	.	.	8b-	.
.	.	.	.	.	.	4bb-	.	4ee-	8g	.
.	.	.	.	.	.	.	.	.	8b-	.
=81	=81	=81	=81	=81	=81	=81	=81	=81	=81	=81
1r	1r	1r	1r	1r	1r	8r	1r	2dd	8a-	1r
.	.	.	.	.	.	8bb-	.	.	8b-	.
.	.	.	.	.	.	4bb-	.	.	8a-	.
.	.	.	.	.	.	.	.	.	8b-	.
.	.	.	.	.	.	4r	.	8ee-	8g	.
.	.	.	.	.	.	.	.	8dd	8b-	.
.	.	.	.	.	.	4bb-	.	8ee-	8g	.
.	.	.	.	.	.	.	.	8gg	8b-	.
=82	=82	=82	=82	=82	=82	=82	=82	=82	=82	=82
1r	1r	1r	1r	1r	1r	8r	1r	2b-	8a-	1r
.	.	.	.	.	.	8bb-	.	.	8b-	.
.	.	.	.	.	.	4bb-	.	.	8a-	.
.	.	.	.	.	.	.	.	.	8b-	.
.	.	.	.	.	.	4r	.	4ee-	8g	.
.	.	.	.	.	.	.	.	.	8b-	.
.	.	.	.	.	.	4bb-	.	4ee-	8g	.
.	.	.	.	.	.	.	.	.	8b-	.
=83	=83	=83	=83	=83	=83	=83	=83	=83	=83	=83
1r	1r	1r	1r	1r	1r	8r	1r	2dd	8a-	1r
.	.	.	.	.	.	8bb-	.	.	8b-	.
.	.	.	.	.	.	4bb-	.	.	8a-	.
.	.	.	.	.	.	.	.	.	8b-	.
.	.	.	.	.	.	4r	.	8ee-	8g	.
.	.	.	.	.	.	.	.	8dd	8b-	.
.	.	.	.	.	.	4bb-	.	8ee-	8g	.
.	.	.	.	.	.	.	.	8gg	8b-	.
=84	=84	=84	=84	=84	=84	=84	=84	=84	=84	=84
1r	1r	1r	1r	1r	1r	8r	1r	2a-	8d	1r
.	.	.	.	.	.	8bb-	.	.	8b-	.
.	.	.	.	.	.	4bb-	.	.	8d	.
.	.	.	.	.	.	.	.	.	8b-	.
.	.	.	.	.	.	4r	.	4g	8e-	.
.	.	.	.	.	.	.	.	.	8b-	.
.	.	.	.	.	.	4bb-	.	4g	8e-	.
.	.	.	.	.	.	.	.	.	8b-	.
=85	=85	=85	=85	=85	=85	=85	=85	=85	=85	=85
1r	1r	1r	1r	1r	1r	8r	1r	4f	8A-	1r
.	.	.	.	.	.	8ccc	.	.	8c	.
.	.	.	.	.	.	4ccc	.	4f	8A-	.
.	.	.	.	.	.	.	.	.	8c	.
.	.	.	.	.	.	8r	.	8f	8A	.
.	.	.	.	.	.	8ee-	.	8e-	8c	.
.	.	.	.	.	.	4ee-	.	8d	8A	.
.	.	.	.	.	.	.	.	8c	8c	.
=86	=86	=86	=86	=86	=86	=86	=86	=86	=86	=86
1r	2r	2r	1r	1r	1r	4dd	1r	4B-	4B-	2r
.	.	.	.	.	.	2.r	.	4r	4b-	.
.	4E-	4E-	.	.	.	.	.	4g	4B-	4E-
.	4E-	4E-	.	.	.	.	.	4g	4B-	4E-
=87	=87	=87	=87	=87	=87	=87	=87	=87	=87	=87
1r	4EE-	4EE-	1r	1r	1r	8r	1r	2g	2B-	4E-
.	.	.	.	.	.	8g	.	.	.	.
.	4E-	4E-	.	.	.	8b-	.	.	.	4E-
.	.	.	.	.	.	8ee-	.	.	.	.
.	4E-	4E-	.	.	.	8dd	.	8f	2A-	4E-
.	.	.	.	.	.	8ff	.	8e-	.	.
.	4E-	4E-	.	.	.	8bb-	.	8f	.	4E-
.	.	.	.	.	.	8dd	.	8g	.	.
=88	=88	=88	=88	=88	=88	=88	=88	=88	=88	=88
1r	4E-	4E-	1r	1r	1r	8ee-	1r	4e-	4G	4E-
.	.	.	.	.	.	8dd	.	.	.	.
.	2.r	2.r	.	.	.	8ff	.	4f	4d	2.r
.	.	.	.	.	.	8ee-	.	.	.	.
.	.	.	.	.	.	8gg	.	4g	4e-	.
.	.	.	.	.	.	8ff	.	.	.	.
.	.	.	.	.	.	8aa-	.	4a-	4f	.
.	.	.	.	.	.	8gg	.	.	.	.
=89	=89	=89	=89	=89	=89	=89	=89	=89	=89	=89
1r	4EE-	4EE-	1r	1r	1r	8bb-	1r	2b-	2g	4E-
.	.	.	.	.	.	8bb-	.	.	.	.
.	4E-	4E-	.	.	.	8gg	.	.	.	4e-
.	.	.	.	.	.	8ee-	.	.	.	.
.	4E-	4E-	.	.	.	8r	.	8cc	2a-	4e-
.	.	.	.	.	.	8eee-	.	8dd	.	.
.	4E-	4E-	.	.	.	8ccc	.	8ee-	.	4e-
.	.	.	.	.	.	8aa-	.	8cc	.	.
=90	=90	=90	=90	=90	=90	=90	=90	=90	=90	=90
1r	4E-	4E-	1r	1r	1r	4gg	1r	4b-	4g	4e-
.	4r	4r	.	.	.	4.r	.	4r	4r	4r
.	4F	4F	.	.	.	.	.	4a	4e-	4c
.	.	.	.	.	.	8ee-	.	.	.	.
.	4F	4F	.	.	.	8cc	.	4a	4e-	4c
.	.	.	.	.	.	8aa	.	.	.	.
=91	=91	=91	=91	=91	=91	=91	=91	=91	=91	=91
1r	4F	4F	1r	1r	1r	4ee-	1r	4a	4e-	4c
.	4r	4r	.	.	.	4.r	.	4r	4r	4r
.	4D	4D	.	.	.	.	.	4a-	4B-	4f
.	.	.	.	.	.	8ff	.	.	.	.
.	4D	4D	.	.	.	8dd	.	4a-	4B-	4f
.	.	.	.	.	.	8aa-	.	.	.	.
=92	=92	=92	=92	=92	=92	=92	=92	=92	=92	=92
1r	4D	4D	1r	1r	1r	8ff	1r	2a-	1B-	2f
.	.	.	.	.	.	8ccc	.	.	.	.
.	4D	4D	.	.	.	8bb-	.	.	.	.
.	.	.	.	.	.	8aa-	.	.	.	.
.	4E-	4E-	.	.	.	8gg	.	8g	.	2B-
.	.	.	.	.	.	8ff	.	8f	.	.
.	4E-	4E-	.	.	.	8gg	.	8g	.	.
.	.	.	.	.	.	8ee-	.	8e-	.	.
=93	=93	=93	=93	=93	=93	=93	=93	=93	=93	=93
1r	4AA-	4AA-	1r	1r	1r	8ff	1r	4f	4c	4A-
.	.	.	.	.	.	8cc	.	.	.	.
.	4AA-	4AA-	.	.	.	8ff	.	4f	4c	4A-
.	.	.	.	.	.	8aa-	.	.	.	.
.	4AA-	4AA-	.	.	.	8ff	.	8f	4c	4A-
.	.	.	.	.	.	8aa-	.	8a-	.	.
.	4BB-	4BB-	.	.	.	8ff	.	8f	4A-	4B-
.	.	.	.	.	.	8dd	.	8d	.	.
=94	=94	=94	=94	=94	=94	=94	=94	=94	=94	=94
2r	4EE-	4EE-	2r	2r	2r	4ee-	2r	4e-	4G	4E-
.	4E-	4E-	.	.	.	4r	.	4r	4r	4e-
2r	2r	2r	2r	4gg	4b-	2r	2r	4g	4B-	2r
.	.	.	.	4gg	4b-	.	.	4g	4B-	.
=95	=95	=95	=95	=95	=95	=95	=95	=95	=95	=95
1r	4EE-	4EE-	1r	2gg	2b-	1r	1r	2g	2B-	2B-
.	4E-	4E-	.	.	.	.	.	.	.	.
.	4E-	4E-	.	8ff	8a-	.	.	8f	2A-	2d
.	.	.	.	8ee-	8g	.	.	8e-	.	.
.	4E-	4E-	.	8ff	8a-	.	.	8f	.	.
.	.	.	.	8gg	8b-	.	.	8g	.	.
=96	=96	=96	=96	=96	=96	=96	=96	=96	=96	=96
1r	4E-	4E-	1r	4ee-	4g	1r	1r	8e-	4G	4e-
.	.	.	.	.	.	.	.	8d	.	.
.	2.r	2.r	.	2.r	2.r	.	.	8e-	2.r	2.r
.	.	.	.	.	.	.	.	8f	.	.
.	.	.	.	.	.	.	.	8g-	.	.
.	.	.	.	.	.	.	.	8g	.	.
.	.	.	.	.	.	.	.	8a-	.	.
.	.	.	.	.	.	.	.	8a	.	.
=97	=97	=97	=97	=97	=97	=97	=97	=97	=97	=97
1r	4EE-	4EE-	1r	1r	1r	1r	1r	8b-	2g	4E-
.	.	.	.	.	.	.	.	8a	.	.
.	4E-	4E-	.	.	.	.	.	8b-	.	4e-
.	.	.	.	.	.	.	.	8b	.	.
.	4E-	4E-	.	.	.	.	.	8cc	2a-	4e-
.	.	.	.	.	.	.	.	8dd	.	.
.	4E-	4E-	.	.	.	.	.	8ee-	.	4e-
.	.	.	.	.	.	.	.	8cc	.	.
=98	=98	=98	=98	=98	=98	=98	=98	=98	=98	=98
1r	4E-	4E-	1r	1r	1r	1r	1r	8cc	4g	4e-
.	.	.	.	.	.	.	.	8b-	.	.
.	2.r	2.r	.	.	.	.	.	8a	2.r	2.r
.	.	.	.	.	.	.	.	8b-	.	.
.	.	.	.	.	.	.	.	8a-	.	.
.	.	.	.	.	.	.	.	8g	.	.
.	.	.	.	.	.	.	.	8f#	.	.
.	.	.	.	.	.	.	.	8g	.	.
=99	=99	=99	=99	=99	=99	=99	=99	=99	=99	=99
1r	4E-	4E-	1r	1r	1r	1r	1r	8f#	2B-	2B-
.	.	.	.	.	.	.	.	8g	.	.
.	4E-	4E-	.	.	.	.	.	8b-	.	.
.	.	.	.	.	.	.	.	8g	.	.
.	4D	4D	.	.	.	.	.	8e	2B	2B
.	.	.	.	.	.	.	.	8f	.	.
.	4D	4D	.	.	.	.	.	8a-	.	.
.	.	.	.	.	.	.	.	8f	.	.
=100	=100	=100	=100	=100	=100	=100	=100	=100	=100	=100
1r	4C	4C	1r	1r	1r	1r	1r	8c	4c	4c
.	.	.	.	.	.	.	.	8e-	.	.
.	2r	2r	.	.	.	.	.	8ee-	2r	2r
.	.	.	.	.	.	.	.	8f	.	.
.	.	.	.	.	.	.	.	8ee-	.	.
.	.	.	.	.	.	.	.	8g	.	.
.	4F	4F	.	.	.	.	.	8ee-	4a	4c
.	.	.	.	.	.	.	.	8a	.	.
=101	=101	=101	=101	=101	=101	=101	=101	=101	=101	=101
1r	4B-	4B-	1r	1r	1r	1r	1r	8ee-	4b-	4B-
.	.	.	.	.	.	.	.	8dd	.	.
.	4D	4D	.	.	.	.	.	8ff	4f	4d
.	.	.	.	.	.	.	.	8b-	.	.
.	4E-	4E-	.	.	.	.	.	8b	4g	4e-
.	.	.	.	.	.	.	.	8cc	.	.
.	4F	4F	.	.	.	.	.	8ee-	4c	4f
.	.	.	.	.	.	.	.	8a	.	.
=102	=102	=102	=102	=102	=102	=102	=102	=102	=102	=102
2r	4BB-	4BB-	2r	2r	2r	2r	2r	4cc	4e-	4B-
.	4r	4r	.	.	.	.	.	4b-	4d	4r
2r	8G	2r	2r	2r	2r	2r	2r	4ee-	2r	2r
.	8B-	.	.	.	.	.	.	.	.	.
.	8G	.	.	.	.	.	.	4ee-	.	.
.	8B-	.	.	.	.	.	.	.	.	.
=103	=103	=103	=103	=103	=103	=103	=103	=103	=103	=103
1r	8A-	1r	1r	4ff	4b-	[1bb-	1r	2dd	4f	4B-
.	8B-	.	.	.	.	.	.	.	.	.
.	8A-	.	.	4ff	4b-	.	.	.	4f	4B-
.	8B-	.	.	.	.	.	.	.	.	.
.	8G	.	.	4gg	4ee-	.	.	8ee-	4g	4e-
.	8B-	.	.	.	.	.	.	8dd	.	.
.	8G	.	.	4r	4r	.	.	8ee-	4r	4r
.	8B-	.	.	.	.	.	.	8gg	.	.
=104	=104	=104	=104	=104	=104	=104	=104	=104	=104	=104
1r	8A-	1r	1r	4ff	4b-	1bb-_	1r	2b-	4f	4B-
.	8B-	.	.	.	.	.	.	.	.	.
.	8A-	.	.	4ff	4b-	.	.	.	4f	4B-
.	8B-	.	.	.	.	.	.	.	.	.
.	8G	.	.	4gg	4ee-	.	.	4ee-	4g	4e-
.	8B-	.	.	.	.	.	.	.	.	.
.	8G	.	.	4r	4r	.	.	4ee-	4r	4r
.	8B-	.	.	.	.	.	.	.	.	.
=105	=105	=105	=105	=105	=105	=105	=105	=105	=105	=105
1r	8A-	1r	1r	4ff	4b-	1bb-_	1r	2dd	4f	4B-
.	8B-	.	.	.	.	.	.	.	.	.
.	8A-	.	.	4ff	4b-	.	.	.	4f	4B-
.	8B-	.	.	.	.	.	.	.	.	.
.	8G	.	.	4gg	4ee-	.	.	8ee-	4g	4e-
.	8B-	.	.	.	.	.	.	8dd	.	.
.	8G	.	.	4r	4r	.	.	8ee-	4r	4r
.	8B-	.	.	.	.	.	.	8gg	.	.
=106	=106	=106	=106	=106	=106	=106	=106	=106	=106	=106
1r	8D	1r	1r	4aa-	4ff	1bb-]	1r	2a-	4f	4B-
.	8B-	.	.	.	.	.	.	.	.	.
.	8D	.	.	4aa-	4ff	.	.	.	4f	4B-
.	8B-	.	.	.	.	.	.	.	.	.
.	8E-	.	.	4gg	4ee-	.	.	4g	4g	4e-
.	8B-	.	.	.	.	.	.	.	.	.
.	8E-	.	.	4gg	4ee-	.	.	4g	4g	4e-
.	8B-	.	.	.	.	.	.	.	.	.
=107	=107	=107	=107	=107	=107	=107	=107	=107	=107	=107
1r	8AA-	1r	1r	4ff	4cc	4ccc	1r	4f	4f	4A-
.	8C	.	.	.	.	.	.	.	.	.
.	8AA-	.	.	4ff	2.r	2.r	.	4f	4f	4A-
.	8C	.	.	.	.	.	.	.	.	.
.	8AA	.	.	8ff	.	.	.	8f	8f	4A
.	8C	.	.	8ee-	.	.	.	8e-	8e-	.
.	8AA	.	.	8dd	.	.	.	8d	8d	4A
.	8C	.	.	8cc	.	.	.	8c	8c	.
=108	=108	=108	=108	=108	=108	=108	=108	=108	=108	=108
1r	4BB-	1r	1r	4b-	1r	2r	1r	4B-	4B-	4B-
.	4B-	.	.	2.r	.	.	.	4r	4r	2.r
.	2r	.	.	.	.	4gg	.	4g	4B-	.
.	.	.	.	.	.	4gg	.	4g	4B-	.
=109	=109	=109	=109	=109	=109	=109	=109	=109	=109	=109
1r	4EE-	4EE-	1r	1r	1r	2gg	2G	2g	2B-	2B-
.	4E-	4E-	.	.	.	.	.	.	.	.
.	4E-	4E-	.	.	.	8ff	8F	8f	2A-	2d
.	.	.	.	.	.	8ee-	8E-	8e-	.	.
.	4E-	4E-	.	.	.	8ff	8F	8f	.	.
.	.	.	.	.	.	8gg	8G	8g	.	.
=110	=110	=110	=110	=110	=110	=110	=110	=110	=110	=110
1r	4E-	4E-	1r	1r	1r	8ee-	8E-	8e-	4B-	4e-
.	.	.	.	.	.	8dd	8D	8d	.	.
.	2.r	2.r	.	.	.	8ee-	8E-	8e-	2.r	2.r
.	.	.	.	.	.	8ff	8F	8f	.	.
.	.	.	.	.	.	8gg-	8G-	8g-	.	.
.	.	.	.	.	.	8gg	8G	8g	.	.
.	.	.	.	.	.	8aa-	8A-	8a-	.	.
.	.	.	.	.	.	8aa	8A	8a	.	.
=111	=111	=111	=111	=111	=111	=111	=111	=111	=111	=111
1r	4EE-	4EE-	1r	1r	1r	8bb-	8B-	8b-	4g	4e-
.	.	.	.	.	.	8aa	8A	8a	.	.
.	4E-	4E-	.	.	.	8bb-	8B-	8b-	4g	4e-
.	.	.	.	.	.	8bb	8B	8b	.	.
.	4E-	4E-	.	.	.	8ccc	8c	8cc	4a-	4e-
.	.	.	.	.	.	8ddd	8d	8dd	.	.
.	4E-	4E-	.	.	.	8eee-	8e-	8ee-	4a-	4e-
.	.	.	.	.	.	8ccc	8c	8cc	.	.
=112	=112	=112	=112	=112	=112	=112	=112	=112	=112	=112
1r	4E-	4E-	1r	1r	1r	4bb-	4B-	4b-	4g	4e-
.	4r	4r	.	.	.	2.r	2.r	4r	4r	4r
.	4F	4F	.	.	.	.	.	4a	4e-	4c
.	4F	4F	.	.	.	.	.	4a	4e-	4c
=113	=113	=113	=113	=113	=113	=113	=113	=113	=113	=113
2r	4F	4F	2r	2r	2r	2r	2r	4a	4e-	4c
.	4r	4r	.	.	.	.	.	4r	4r	4r
4dd	4D	4D	4g	4aa-	4ff	4aa-	4D	4aa- 4b- 4d	4d 4ff 4b-	4B-
4dd	4D	4D	4g	4aa-	4ff	4aa-	4D	4aa- 4b- 4d	4ff 4b- 4d	4B-
=114	=114	=114	=114	=114	=114	=114	=114	=114	=114	=114
4dd	4D	4D	4g	4aa-	4ff	4aa-	4D	4aa- 4b- 4d	4ff 4d 4b-	4B-
2.r	4r	4r	2.r	2.r	2.r	2.r	2.r	4r	4r	4r
.	4E-	4E-	.	.	.	.	.	4g	4B-	4e-
.	4E-	4E-	.	.	.	.	.	4g	4B-	4e-
=115	=115	=115	=115	=115	=115	=115	=115	=115	=115	=115
1r	4AA-	4AA-	1r	1r	1r	1r	1r	4f	4c	4A-
.	4r	4r	.	.	.	.	.	4r	4r	4r
.	4BB-	4BB-	.	.	.	.	.	4d	4A-	4B-
.	4BB-	4BB-	.	.	.	.	.	4d	4A-	4B-
=116	=116	=116	=116	=116	=116	=116	=116	=116	=116	=116
[1c	4E-	4E-	[1C	1r	1r	1r	1r	4e-	4G	4E-
.	2.r	2.r	.	.	.	.	.	4r	4r	2.r
.	.	.	.	.	.	.	.	4g	4B-	.
.	.	.	.	.	.	.	.	4g	4B-	.
=117	=117	=117	=117	=117	=117	=117	=117	=117	=117	=117
1c_	1r	1r	1C_	1r	1r	1r	1r	2g	2B-	2B-
.	.	.	.	.	.	.	.	8f	2A-	2d
.	.	.	.	.	.	.	.	8e-	.	.
.	.	.	.	.	.	.	.	8f	.	.
.	.	.	.	.	.	.	.	8g	.	.
=118	=118	=118	=118	=118	=118	=118	=118	=118	=118	=118
1c_	4E-	4E-	1C_	1r	1r	1r	2r	4e-	4G	4e-
.	2.r	2.r	.	.	.	.	.	4r	4r	2.r
.	.	.	.	.	.	.	4G	4b-	4g	.
.	.	.	.	.	.	.	4G	4b-	4g	.
=119	=119	=119	=119	=119	=119	=119	=119	=119	=119	=119
1c_	1r	1r	1C_	1r	1r	1r	2G	2b-	2g	1r
.	.	.	.	.	.	.	8F	8a-	8f	.
.	.	.	.	.	.	.	8E-	8g	8e-	.
.	.	.	.	.	.	.	8F	8a-	8f	.
.	.	.	.	.	.	.	8G	8b-	8g	.
=120	=120	=120	=120	=120	=120	=120	=120	=120	=120	=120
4c]	4E-	4E-	4C]	2r	2r	1r	4E-	4g	4e-	4e-
2.r	2.r	2.r	2.r	.	.	.	2.r	2.r	2.r	2.r
.	.	.	.	4gg	4b-	.	.	.	.	.
.	.	.	.	4gg	4b-	.	.	.	.	.
=121	=121	=121	=121	=121	=121	=121	=121	=121	=121	=121
1r	4e-	4e-	1r	2gg	2b-	1r	1r	4b-	4g	4e-
.	4r	4r	.	.	.	.	.	4r	4r	4r
.	4B-	4B-	.	8ff	2a-	.	.	4dd	4a-	4f
.	.	.	.	8ee-	.	.	.	.	.	.
.	4r	4r	.	8ff	.	.	.	4r	4r	4r
.	.	.	.	8gg	.	.	.	.	.	.
=122	=122	=122	=122	=122	=122	=122	=122	=122	=122	=122
1r	4E-	4E-	1r	4ee-	4g	1r	1r	4ee-	4g	4g
.	2.r	2.r	.	4r	4r	.	.	2.r	2.r	2.r
.	.	.	.	4bb-	4gg	.	.	.	.	.
.	.	.	.	4bb-	4gg	.	.	.	.	.
=123	=123	=123	=123	=123	=123	=123	=123	=123	=123	=123
1r	4E-	4E-	1r	2bb-	2gg	4b-	4e-	4bb-	4gg	4e-
.	4r	4r	.	.	.	4r	4r	4r	4r	4r
.	4BB-	4BB-	.	8aa-	8ff	4dd	4B-	4ddd	4ff	4a-
.	.	.	.	8gg	8ee-	.	.	.	.	.
.	4r	4r	.	8aa-	8ff	4r	4r	4r	4r	4r
.	.	.	.	8bb-	8gg	.	.	.	.	.
=124	=124	=124	=124	=124	=124	=124	=124	=124	=124	=124
2r	4EE-	4EE-	2r	4gg	4ee-	4ee-	4E-	4eee-	4ee-	4g
.	4r	4r	.	4r	4r	4r	4r	4r	4r	4r
4cc	4EE-	4EE-	4e	4ee-	4g	4eee-	4G	4e-	4G	4B-
4cc	4EE-	4EE-	4e	4ee-	4g	4eee-	4G	4e-	4G	4B-
=125	=125	=125	=125	=125	=125	=125	=125	=125	=125	=125
4cc	4EE-	4EE-	4e	4ee-	4g	4eee-	4G	4e-	4G	4B-
4r	4r	4r	4r	4r	4r	4r	4r	4r	4r	4r
4cc	4EE-	4EE-	4e	4ee-	4g	4eee-	4G	4e-	4G	4E-
4cc	4EE-	4EE-	4e	4ee-	4g	4eee-	4G	4e-	4G	4E-
=126	=126	=126	=126	=126	=126	=126	=126	=126	=126	=126
4cc	4EE-	4EE-	4e	4ee-	4g	4eee-	4G	4e-	4G	4E-
2.r	2.r	2.r	2.r	2.r	2.r	2.r	2.r	2.r	2.r	2.r
==	==	==	==	==	==	==	==	==	==	==
*-	*-	*-	*-	*-	*-	*-	*-	*-	*-	*-
!!!RWG1: This file contains only pitch and duration data.
!!!RWG2: Transposing instruments are not transposed.
!!!RWG3: Spines may have incompatible meters.
!!!RWG4: Durations of rests and tied notes may be interpreted.
!!!RWG: Key is interpreted using the Humdrum key tool.
!!!OPT: La Reine
!!!AFT: stage1
!!!END: 1997/04/15
!!format changes:
!!content changes:
!!public access: complete
!!!KEY: 1842317621
!!!EMD: Converted from MuseData to Humdrum Dec 16, 2000, by Andreas Kornstaedt using muse2kern.
